%
(1001)
(T1  D=0.25 CR=0 - ZMIN=-0.765 - flat end mill)
(T2  D=0.25 CR=0 - ZMIN=-0.765 - flat end mill)
G90
G17
G20
G28 G91 Z0
G90

(2D Pocket1)
M9
T1 M6
S5000 M3
G54
G0 X1.55 Y10
Z0.7
Z0.4
G1 Z0.2394 F100
Z-0.2 F50
G3 X1.6875 I0.0688 J0 F160
X1.3125 I-0.1875 J0
X1.925 I0.3062 J0
X1.075 I-0.425 J0
X1.925 I0.425 J0
X1.8497 Y10.0612 I-0.0625 J0
G1 X1.5628 Y10.0013
G2 X1.55 Y10 I-0.0128 J0.0612
G1 Z-0.4 F50
G3 X1.6875 I0.0688 J0 F160
X1.3125 I-0.1875 J0
X1.925 I0.3062 J0
X1.075 I-0.425 J0
X1.925 I0.425 J0
X1.8497 Y10.0612 I-0.0625 J0
G1 X1.5628 Y10.0013
G2 X1.55 Y10 I-0.0128 J0.0612
G1 Z-0.6 F50
G3 X1.6875 I0.0688 J0 F160
X1.3125 I-0.1875 J0
X1.925 I0.3062 J0
X1.075 I-0.425 J0
X1.925 I0.425 J0
X1.8497 Y10.0612 I-0.0625 J0
G1 X1.5628 Y10.0013
G2 X1.55 Y10 I-0.0128 J0.0612
G1 Z-0.765 F50
G3 X1.6875 I0.0688 J0 F160
X1.3125 I-0.1875 J0
X1.925 I0.3062 J0
X1.075 I-0.425 J0
X1.925 I0.425 J0
G0 Z0.4
X10.05
G1 Z0.2394 F50
Z-0.2
G3 X10.1875 I0.0687 J0 F160
X9.8125 I-0.1875 J0
X10.425 I0.3062 J0
X9.575 I-0.425 J0
X10.425 I0.425 J0
X10.3497 Y10.0612 I-0.0625 J0
G1 X10.0628 Y10.0013
G2 X10.05 Y10 I-0.0128 J0.0612
G1 Z-0.4 F50
G3 X10.1875 I0.0687 J0 F160
X9.8125 I-0.1875 J0
X10.425 I0.3062 J0
X9.575 I-0.425 J0
X10.425 I0.425 J0
X10.3497 Y10.0612 I-0.0625 J0
G1 X10.0628 Y10.0013
G2 X10.05 Y10 I-0.0128 J0.0612
G1 Z-0.6 F50
G3 X10.1875 I0.0687 J0 F160
X9.8125 I-0.1875 J0
X10.425 I0.3062 J0
X9.575 I-0.425 J0
X10.425 I0.425 J0
X10.3497 Y10.0612 I-0.0625 J0
G1 X10.0628 Y10.0013
G2 X10.05 Y10 I-0.0128 J0.0612
G1 Z-0.765 F50
G3 X10.1875 I0.0687 J0 F160
X9.8125 I-0.1875 J0
X10.425 I0.3062 J0
X9.575 I-0.425 J0
X10.425 I0.425 J0
G0 Z0.4
X1.55 Y1.5
G1 Z0.2394 F50
Z-0.2
G3 X1.6875 I0.0688 J0 F160
X1.3125 I-0.1875 J0
X1.925 I0.3062 J0
X1.075 I-0.425 J0
X1.925 I0.425 J0
X1.8497 Y1.5612 I-0.0625 J0
G1 X1.5628 Y1.5013
G2 X1.55 Y1.5 I-0.0128 J0.0612
G1 Z-0.4 F50
G3 X1.6875 I0.0688 J0 F160
X1.3125 I-0.1875 J0
X1.925 I0.3062 J0
X1.075 I-0.425 J0
X1.925 I0.425 J0
X1.8497 Y1.5612 I-0.0625 J0
G1 X1.5628 Y1.5013
G2 X1.55 Y1.5 I-0.0128 J0.0612
G1 Z-0.6 F50
G3 X1.6875 I0.0688 J0 F160
X1.3125 I-0.1875 J0
X1.925 I0.3062 J0
X1.075 I-0.425 J0
X1.925 I0.425 J0
X1.8497 Y1.5612 I-0.0625 J0
G1 X1.5628 Y1.5013
G2 X1.55 Y1.5 I-0.0128 J0.0612
G1 Z-0.765 F50
G3 X1.6875 I0.0688 J0 F160
X1.3125 I-0.1875 J0
X1.925 I0.3062 J0
X1.075 I-0.425 J0
X1.925 I0.425 J0
G0 Z0.7

(2D Pocket1)
X13.3 Y10
Z0.7
Z0.4
G1 Z0.2394 F100
Z-0.2 F50
G3 X13.4375 I0.0688 J0 F160
X13.0625 I-0.1875 J0
X13.675 I0.3062 J0
X12.825 I-0.425 J0
X13.675 I0.425 J0
X13.5997 Y10.0612 I-0.0625 J0
G1 X13.3128 Y10.0013
G2 X13.3 Y10 I-0.0128 J0.0612
G1 Z-0.4 F50
G3 X13.4375 I0.0688 J0 F160
X13.0625 I-0.1875 J0
X13.675 I0.3062 J0
X12.825 I-0.425 J0
X13.675 I0.425 J0
X13.5997 Y10.0612 I-0.0625 J0
G1 X13.3128 Y10.0013
G2 X13.3 Y10 I-0.0128 J0.0612
G1 Z-0.6 F50
G3 X13.4375 I0.0688 J0 F160
X13.0625 I-0.1875 J0
X13.675 I0.3062 J0
X12.825 I-0.425 J0
X13.675 I0.425 J0
X13.5997 Y10.0612 I-0.0625 J0
G1 X13.3128 Y10.0013
G2 X13.3 Y10 I-0.0128 J0.0612
G1 Z-0.765 F50
G3 X13.4375 I0.0688 J0 F160
X13.0625 I-0.1875 J0
X13.675 I0.3062 J0
X12.825 I-0.425 J0
X13.675 I0.425 J0
G0 Z0.4
X21.8
G1 Z0.2394 F50
Z-0.2
G3 X21.9375 I0.0687 J0 F160
X21.5625 I-0.1875 J0
X22.175 I0.3062 J0
X21.325 I-0.425 J0
X22.175 I0.425 J0
X22.0997 Y10.0612 I-0.0625 J0
G1 X21.8128 Y10.0013
G2 X21.8 Y10 I-0.0128 J0.0612
G1 Z-0.4 F50
G3 X21.9375 I0.0687 J0 F160
X21.5625 I-0.1875 J0
X22.175 I0.3062 J0
X21.325 I-0.425 J0
X22.175 I0.425 J0
X22.0997 Y10.0612 I-0.0625 J0
G1 X21.8128 Y10.0013
G2 X21.8 Y10 I-0.0128 J0.0612
G1 Z-0.6 F50
G3 X21.9375 I0.0687 J0 F160
X21.5625 I-0.1875 J0
X22.175 I0.3062 J0
X21.325 I-0.425 J0
X22.175 I0.425 J0
X22.0997 Y10.0612 I-0.0625 J0
G1 X21.8128 Y10.0013
G2 X21.8 Y10 I-0.0128 J0.0612
G1 Z-0.765 F50
G3 X21.9375 I0.0687 J0 F160
X21.5625 I-0.1875 J0
X22.175 I0.3062 J0
X21.325 I-0.425 J0
X22.175 I0.425 J0
G0 Z0.4
X13.3 Y1.5
G1 Z0.2394 F50
Z-0.2
G3 X13.4375 I0.0688 J0 F160
X13.0625 I-0.1875 J0
X13.675 I0.3062 J0
X12.825 I-0.425 J0
X13.675 I0.425 J0
X13.5997 Y1.5612 I-0.0625 J0
G1 X13.3128 Y1.5013
G2 X13.3 Y1.5 I-0.0128 J0.0612
G1 Z-0.4 F50
G3 X13.4375 I0.0688 J0 F160
X13.0625 I-0.1875 J0
X13.675 I0.3062 J0
X12.825 I-0.425 J0
X13.675 I0.425 J0
X13.5997 Y1.5612 I-0.0625 J0
G1 X13.3128 Y1.5013
G2 X13.3 Y1.5 I-0.0128 J0.0612
G1 Z-0.6 F50
G3 X13.4375 I0.0688 J0 F160
X13.0625 I-0.1875 J0
X13.675 I0.3062 J0
X12.825 I-0.425 J0
X13.675 I0.425 J0
X13.5997 Y1.5612 I-0.0625 J0
G1 X13.3128 Y1.5013
G2 X13.3 Y1.5 I-0.0128 J0.0612
G1 Z-0.765 F50
G3 X13.4375 I0.0688 J0 F160
X13.0625 I-0.1875 J0
X13.675 I0.3062 J0
X12.825 I-0.425 J0
X13.675 I0.425 J0
G0 Z0.7

(2D Pocket1)
X1.55 Y21.75
Z0.7
Z0.4
G1 Z0.2394 F100
Z-0.2 F50
G3 X1.6875 I0.0688 J0 F160
X1.3125 I-0.1875 J0
X1.925 I0.3062 J0
X1.075 I-0.425 J0
X1.925 I0.425 J0
X1.8497 Y21.8112 I-0.0625 J0
G1 X1.5628 Y21.7513
G2 X1.55 Y21.75 I-0.0128 J0.0612
G1 Z-0.4 F50
G3 X1.6875 I0.0688 J0 F160
X1.3125 I-0.1875 J0
X1.925 I0.3062 J0
X1.075 I-0.425 J0
X1.925 I0.425 J0
X1.8497 Y21.8112 I-0.0625 J0
G1 X1.5628 Y21.7513
G2 X1.55 Y21.75 I-0.0128 J0.0612
G1 Z-0.6 F50
G3 X1.6875 I0.0688 J0 F160
X1.3125 I-0.1875 J0
X1.925 I0.3062 J0
X1.075 I-0.425 J0
X1.925 I0.425 J0
X1.8497 Y21.8112 I-0.0625 J0
G1 X1.5628 Y21.7513
G2 X1.55 Y21.75 I-0.0128 J0.0612
G1 Z-0.765 F50
G3 X1.6875 I0.0688 J0 F160
X1.3125 I-0.1875 J0
X1.925 I0.3062 J0
X1.075 I-0.425 J0
X1.925 I0.425 J0
G0 Z0.4
X10.05
G1 Z0.2394 F50
Z-0.2
G3 X10.1875 I0.0687 J0 F160
X9.8125 I-0.1875 J0
X10.425 I0.3062 J0
X9.575 I-0.425 J0
X10.425 I0.425 J0
X10.3497 Y21.8112 I-0.0625 J0
G1 X10.0628 Y21.7513
G2 X10.05 Y21.75 I-0.0128 J0.0612
G1 Z-0.4 F50
G3 X10.1875 I0.0687 J0 F160
X9.8125 I-0.1875 J0
X10.425 I0.3062 J0
X9.575 I-0.425 J0
X10.425 I0.425 J0
X10.3497 Y21.8112 I-0.0625 J0
G1 X10.0628 Y21.7513
G2 X10.05 Y21.75 I-0.0128 J0.0612
G1 Z-0.6 F50
G3 X10.1875 I0.0687 J0 F160
X9.8125 I-0.1875 J0
X10.425 I0.3062 J0
X9.575 I-0.425 J0
X10.425 I0.425 J0
X10.3497 Y21.8112 I-0.0625 J0
G1 X10.0628 Y21.7513
G2 X10.05 Y21.75 I-0.0128 J0.0612
G1 Z-0.765 F50
G3 X10.1875 I0.0687 J0 F160
X9.8125 I-0.1875 J0
X10.425 I0.3062 J0
X9.575 I-0.425 J0
X10.425 I0.425 J0
G0 Z0.4
X1.55 Y13.25
G1 Z0.2394 F50
Z-0.2
G3 X1.6875 I0.0688 J0 F160
X1.3125 I-0.1875 J0
X1.925 I0.3062 J0
X1.075 I-0.425 J0
X1.925 I0.425 J0
X1.8497 Y13.3112 I-0.0625 J0
G1 X1.5628 Y13.2513
G2 X1.55 Y13.25 I-0.0128 J0.0612
G1 Z-0.4 F50
G3 X1.6875 I0.0688 J0 F160
X1.3125 I-0.1875 J0
X1.925 I0.3062 J0
X1.075 I-0.425 J0
X1.925 I0.425 J0
X1.8497 Y13.3112 I-0.0625 J0
G1 X1.5628 Y13.2513
G2 X1.55 Y13.25 I-0.0128 J0.0612
G1 Z-0.6 F50
G3 X1.6875 I0.0688 J0 F160
X1.3125 I-0.1875 J0
X1.925 I0.3062 J0
X1.075 I-0.425 J0
X1.925 I0.425 J0
X1.8497 Y13.3112 I-0.0625 J0
G1 X1.5628 Y13.2513
G2 X1.55 Y13.25 I-0.0128 J0.0612
G1 Z-0.765 F50
G3 X1.6875 I0.0688 J0 F160
X1.3125 I-0.1875 J0
X1.925 I0.3062 J0
X1.075 I-0.425 J0
X1.925 I0.425 J0
G0 Z0.7

(2D Pocket1)
X13.3 Y21.75
Z0.7
Z0.4
G1 Z0.2394 F100
Z-0.2 F50
G3 X13.4375 I0.0688 J0 F160
X13.0625 I-0.1875 J0
X13.675 I0.3062 J0
X12.825 I-0.425 J0
X13.675 I0.425 J0
X13.5997 Y21.8112 I-0.0625 J0
G1 X13.3128 Y21.7513
G2 X13.3 Y21.75 I-0.0128 J0.0612
G1 Z-0.4 F50
G3 X13.4375 I0.0688 J0 F160
X13.0625 I-0.1875 J0
X13.675 I0.3062 J0
X12.825 I-0.425 J0
X13.675 I0.425 J0
X13.5997 Y21.8112 I-0.0625 J0
G1 X13.3128 Y21.7513
G2 X13.3 Y21.75 I-0.0128 J0.0612
G1 Z-0.6 F50
G3 X13.4375 I0.0688 J0 F160
X13.0625 I-0.1875 J0
X13.675 I0.3062 J0
X12.825 I-0.425 J0
X13.675 I0.425 J0
X13.5997 Y21.8112 I-0.0625 J0
G1 X13.3128 Y21.7513
G2 X13.3 Y21.75 I-0.0128 J0.0612
G1 Z-0.765 F50
G3 X13.4375 I0.0688 J0 F160
X13.0625 I-0.1875 J0
X13.675 I0.3062 J0
X12.825 I-0.425 J0
X13.675 I0.425 J0
G0 Z0.4
X21.8
G1 Z0.2394 F50
Z-0.2
G3 X21.9375 I0.0687 J0 F160
X21.5625 I-0.1875 J0
X22.175 I0.3062 J0
X21.325 I-0.425 J0
X22.175 I0.425 J0
X22.0997 Y21.8112 I-0.0625 J0
G1 X21.8128 Y21.7513
G2 X21.8 Y21.75 I-0.0128 J0.0612
G1 Z-0.4 F50
G3 X21.9375 I0.0687 J0 F160
X21.5625 I-0.1875 J0
X22.175 I0.3062 J0
X21.325 I-0.425 J0
X22.175 I0.425 J0
X22.0997 Y21.8112 I-0.0625 J0
G1 X21.8128 Y21.7513
G2 X21.8 Y21.75 I-0.0128 J0.0612
G1 Z-0.6 F50
G3 X21.9375 I0.0687 J0 F160
X21.5625 I-0.1875 J0
X22.175 I0.3062 J0
X21.325 I-0.425 J0
X22.175 I0.425 J0
X22.0997 Y21.8112 I-0.0625 J0
G1 X21.8128 Y21.7513
G2 X21.8 Y21.75 I-0.0128 J0.0612
G1 Z-0.765 F50
G3 X21.9375 I0.0687 J0 F160
X21.5625 I-0.1875 J0
X22.175 I0.3062 J0
X21.325 I-0.425 J0
X22.175 I0.425 J0
G0 Z0.4
X13.3 Y13.25
G1 Z0.2394 F50
Z-0.2
G3 X13.4375 I0.0688 J0 F160
X13.0625 I-0.1875 J0
X13.675 I0.3062 J0
X12.825 I-0.425 J0
X13.675 I0.425 J0
X13.5997 Y13.3112 I-0.0625 J0
G1 X13.3128 Y13.2513
G2 X13.3 Y13.25 I-0.0128 J0.0612
G1 Z-0.4 F50
G3 X13.4375 I0.0688 J0 F160
X13.0625 I-0.1875 J0
X13.675 I0.3062 J0
X12.825 I-0.425 J0
X13.675 I0.425 J0
X13.5997 Y13.3112 I-0.0625 J0
G1 X13.3128 Y13.2513
G2 X13.3 Y13.25 I-0.0128 J0.0612
G1 Z-0.6 F50
G3 X13.4375 I0.0688 J0 F160
X13.0625 I-0.1875 J0
X13.675 I0.3062 J0
X12.825 I-0.425 J0
X13.675 I0.425 J0
X13.5997 Y13.3112 I-0.0625 J0
G1 X13.3128 Y13.2513
G2 X13.3 Y13.25 I-0.0128 J0.0612
G1 Z-0.765 F50
G3 X13.4375 I0.0688 J0 F160
X13.0625 I-0.1875 J0
X13.675 I0.3062 J0
X12.825 I-0.425 J0
X13.675 I0.425 J0
G0 Z0.7
M5
G28 G91 Z0
G90

(Outside)
T2 M6
S10000 M3
G54
G0 X3.875 Y0
Z0.7
Z0.2594
G1 Z-0.1912 F50
Y9.5 F125
G2 X4 Y9.625 I0.125 J0
G1 X3.235
G2 X3.36 Y9.5 I0 J-0.125
G1 Y0
G2 X3.235 Y-0.125 I-0.125 J0
G1 X0.25
G2 X-0.125 Y0.25 I0 J0.375
G1 Y5.015
G2 X0 Y5.14 I0.125 J0
G1 X1.1476
X1.625 Y7.5125
Y8.265
G2 X1.5 Y8.14 I-0.125 J0
G1 X0
G2 X-0.125 Y8.265 I0 J0.125
G1 Y11.25
G2 X0.25 Y11.625 I0.375 J0
G1 X11.25
G2 X11.625 Y11.25 I0 J-0.375
G1 Y4
G2 X11.5 Y3.875 I-0.125 J0
G1 X10
G2 X9.875 Y4 I0 J0.125
G1 Y3.2446
X10.329 Y0.3073
G2 X9.9584 Y-0.125 I-0.3706 J-0.0573
G1 X8.265
G2 X8.14 Y0 I0 J0.125
G1 Y9.5
G2 X8.265 Y9.625 I0.125 J0
G1 X7.5
G2 X7.625 Y9.5 I0 J-0.125
G1 Y0
G2 X7.5 Y-0.125 I-0.125 J0
G1 X4
G2 X3.875 Y0 I0 J0.125
G1 Z-0.3825 F50
Y9.5 F125
G2 X4 Y9.625 I0.125 J0
G1 X3.235
G2 X3.36 Y9.5 I0 J-0.125
G1 Y0
G2 X3.235 Y-0.125 I-0.125 J0
G1 X0.25
G2 X-0.125 Y0.25 I0 J0.375
G1 Y5.015
G2 X0 Y5.14 I0.125 J0
G1 X1.1476
X1.625 Y7.5125
Y8.265
G2 X1.5 Y8.14 I-0.125 J0
G1 X0
G2 X-0.125 Y8.265 I0 J0.125
G1 Y11.25
G2 X0.25 Y11.625 I0.375 J0
G1 X11.25
G2 X11.625 Y11.25 I0 J-0.375
G1 Y4
G2 X11.5 Y3.875 I-0.125 J0
G1 X10
G2 X9.875 Y4 I0 J0.125
G1 Y3.2446
X10.329 Y0.3073
G2 X9.9584 Y-0.125 I-0.3706 J-0.0573
G1 X8.265
G2 X8.14 Y0 I0 J0.125
G1 Y9.5
G2 X8.265 Y9.625 I0.125 J0
G1 X7.5
G2 X7.625 Y9.5 I0 J-0.125
G1 Y0
G2 X7.5 Y-0.125 I-0.125 J0
G1 X4
G2 X3.875 Y0 I0 J0.125
G1 Z-0.5737 F50
Y9.5 F125
G2 X4 Y9.625 I0.125 J0
G1 X3.235
G2 X3.36 Y9.5 I0 J-0.125
G1 Y0
G2 X3.235 Y-0.125 I-0.125 J0
G1 X0.25
G2 X-0.125 Y0.25 I0 J0.375
G1 Y5.015
G2 X0 Y5.14 I0.125 J0
G1 X1.1476
X1.625 Y7.5125
Y8.265
G2 X1.5 Y8.14 I-0.125 J0
G1 X0
G2 X-0.125 Y8.265 I0 J0.125
G1 Y11.25
G2 X0.25 Y11.625 I0.375 J0
G1 X11.25
G2 X11.625 Y11.25 I0 J-0.375
G1 Y4
G2 X11.5 Y3.875 I-0.125 J0
G1 X10
G2 X9.875 Y4 I0 J0.125
G1 Y3.2446
X10.329 Y0.3073
G2 X9.9584 Y-0.125 I-0.3706 J-0.0573
G1 X8.265
G2 X8.14 Y0 I0 J0.125
G1 Y9.5
G2 X8.265 Y9.625 I0.125 J0
G1 X7.5
G2 X7.625 Y9.5 I0 J-0.125
G1 Y0
G2 X7.5 Y-0.125 I-0.125 J0
G1 X4
G2 X3.875 Y0 I0 J0.125
G1 Z-0.625 F50
Y0.479 F125
Z-0.765 F50
Y9.5 F125
G2 X4 Y9.625 I0.125 J0
G1 X3.235
G2 X3.36 Y9.5 I0 J-0.125
G1 Y0
G2 X3.235 Y-0.125 I-0.125 J0
G1 X0.25
G2 X-0.125 Y0.25 I0 J0.375
G1 Y5.015
G2 X0 Y5.14 I0.125 J0
G1 X1.1476
X1.625 Y7.5125
Y7.6672
Z-0.625
Y8.1672
Z-0.765 F50
Y8.265 F125
G2 X1.5779 Y8.1672 I-0.125 J0
G1 Z-0.625
G2 X1.5 Y8.14 I-0.0779 J0.0978
G1 X1.475
Z-0.765 F50
X0 F125
G2 X-0.125 Y8.265 I0 J0.125
G1 Y11.25
G2 X0.25 Y11.625 I0.375 J0
G1 X11.25
G2 X11.625 Y11.25 I0 J-0.375
G1 Y5.1719
Z-0.625
Y4.6719
Z-0.765 F50
Y4 F125
G2 X11.5 Y3.875 I-0.125 J0
G1 X10.9522
Z-0.625
X10.4522
Z-0.765 F50
X10 F125
G2 X9.875 Y4 I0 J0.125
G1 Y3.2446
X10.329 Y0.3073
G2 X9.9584 Y-0.125 I-0.3706 J-0.0573
G1 X8.265
G2 X8.1416 Y-0.0202 I0 J0.125
G1 Z-0.625
G2 X8.14 Y0 I0.1234 J0.0202
G1 Y0.4798
Z-0.765 F50
Y9.5 F125
G2 X8.265 Y9.625 I0.125 J0
G1 X7.5
G2 X7.625 Y9.5 I0 J-0.125
G1 Y0
G2 X7.5 Y-0.125 I-0.125 J0
G1 X4
G2 X3.8768 Y-0.021 I0 J0.125
G1 Z-0.625
G2 X3.875 Y0 I0.1232 J0.021
G0 Z0.7

(Outside)
X15.625 Y0
Z0.7
Z0.2594
G1 Z-0.1912 F50
Y9.5 F125
G2 X15.75 Y9.625 I0.125 J0
G1 X14.985
G2 X15.11 Y9.5 I0 J-0.125
G1 Y0
G2 X14.985 Y-0.125 I-0.125 J0
G1 X12
G2 X11.625 Y0.25 I0 J0.375
G1 Y5.015
G2 X11.75 Y5.14 I0.125 J0
G1 X12.8976
X13.375 Y7.5125
Y8.265
G2 X13.25 Y8.14 I-0.125 J0
G1 X11.75
G2 X11.625 Y8.265 I0 J0.125
G1 Y11.25
G2 X12 Y11.625 I0.375 J0
G1 X23
G2 X23.375 Y11.25 I0 J-0.375
G1 Y4
G2 X23.25 Y3.875 I-0.125 J0
G1 X21.75
G2 X21.625 Y4 I0 J0.125
G1 Y3.2446
X22.079 Y0.3073
G2 X21.7084 Y-0.125 I-0.3706 J-0.0573
G1 X20.015
G2 X19.89 Y0 I0 J0.125
G1 Y9.5
G2 X20.015 Y9.625 I0.125 J0
G1 X19.25
G2 X19.375 Y9.5 I0 J-0.125
G1 Y0
G2 X19.25 Y-0.125 I-0.125 J0
G1 X15.75
G2 X15.625 Y0 I0 J0.125
G1 Z-0.3825 F50
Y9.5 F125
G2 X15.75 Y9.625 I0.125 J0
G1 X14.985
G2 X15.11 Y9.5 I0 J-0.125
G1 Y0
G2 X14.985 Y-0.125 I-0.125 J0
G1 X12
G2 X11.625 Y0.25 I0 J0.375
G1 Y5.015
G2 X11.75 Y5.14 I0.125 J0
G1 X12.8976
X13.375 Y7.5125
Y8.265
G2 X13.25 Y8.14 I-0.125 J0
G1 X11.75
G2 X11.625 Y8.265 I0 J0.125
G1 Y11.25
G2 X12 Y11.625 I0.375 J0
G1 X23
G2 X23.375 Y11.25 I0 J-0.375
G1 Y4
G2 X23.25 Y3.875 I-0.125 J0
G1 X21.75
G2 X21.625 Y4 I0 J0.125
G1 Y3.2446
X22.079 Y0.3073
G2 X21.7084 Y-0.125 I-0.3706 J-0.0573
G1 X20.015
G2 X19.89 Y0 I0 J0.125
G1 Y9.5
G2 X20.015 Y9.625 I0.125 J0
G1 X19.25
G2 X19.375 Y9.5 I0 J-0.125
G1 Y0
G2 X19.25 Y-0.125 I-0.125 J0
G1 X15.75
G2 X15.625 Y0 I0 J0.125
G1 Z-0.5737 F50
Y9.5 F125
G2 X15.75 Y9.625 I0.125 J0
G1 X14.985
G2 X15.11 Y9.5 I0 J-0.125
G1 Y0
G2 X14.985 Y-0.125 I-0.125 J0
G1 X12
G2 X11.625 Y0.25 I0 J0.375
G1 Y5.015
G2 X11.75 Y5.14 I0.125 J0
G1 X12.8976
X13.375 Y7.5125
Y8.265
G2 X13.25 Y8.14 I-0.125 J0
G1 X11.75
G2 X11.625 Y8.265 I0 J0.125
G1 Y11.25
G2 X12 Y11.625 I0.375 J0
G1 X23
G2 X23.375 Y11.25 I0 J-0.375
G1 Y4
G2 X23.25 Y3.875 I-0.125 J0
G1 X21.75
G2 X21.625 Y4 I0 J0.125
G1 Y3.2446
X22.079 Y0.3073
G2 X21.7084 Y-0.125 I-0.3706 J-0.0573
G1 X20.015
G2 X19.89 Y0 I0 J0.125
G1 Y9.5
G2 X20.015 Y9.625 I0.125 J0
G1 X19.25
G2 X19.375 Y9.5 I0 J-0.125
G1 Y0
G2 X19.25 Y-0.125 I-0.125 J0
G1 X15.75
G2 X15.625 Y0 I0 J0.125
G1 Z-0.625 F50
Y0.479 F125
Z-0.765 F50
Y9.5 F125
G2 X15.75 Y9.625 I0.125 J0
G1 X14.985
G2 X15.11 Y9.5 I0 J-0.125
G1 Y0
G2 X14.985 Y-0.125 I-0.125 J0
G1 X12
G2 X11.625 Y0.25 I0 J0.375
G1 Y5.015
G2 X11.75 Y5.14 I0.125 J0
G1 X12.8976
X13.375 Y7.5125
Y7.6672
Z-0.625
Y8.1672
Z-0.765 F50
Y8.265 F125
G2 X13.3279 Y8.1672 I-0.125 J0
G1 Z-0.625
G2 X13.25 Y8.14 I-0.0779 J0.0978
G1 X13.225
Z-0.765 F50
X11.75 F125
G2 X11.625 Y8.265 I0 J0.125
G1 Y11.25
G2 X12 Y11.625 I0.375 J0
G1 X23
G2 X23.375 Y11.25 I0 J-0.375
G1 Y5.1719
Z-0.625
Y4.6719
Z-0.765 F50
Y4 F125
G2 X23.25 Y3.875 I-0.125 J0
G1 X22.7022
Z-0.625
X22.2022
Z-0.765 F50
X21.75 F125
G2 X21.625 Y4 I0 J0.125
G1 Y3.2446
X22.079 Y0.3073
G2 X21.7084 Y-0.125 I-0.3706 J-0.0573
G1 X20.015
G2 X19.8916 Y-0.0202 I0 J0.125
G1 Z-0.625
G2 X19.89 Y0 I0.1234 J0.0202
G1 Y0.4798
Z-0.765 F50
Y9.5 F125
G2 X20.015 Y9.625 I0.125 J0
G1 X19.25
G2 X19.375 Y9.5 I0 J-0.125
G1 Y0
G2 X19.25 Y-0.125 I-0.125 J0
G1 X15.75
G2 X15.6268 Y-0.021 I0 J0.125
G1 Z-0.625
G2 X15.625 Y0 I0.1232 J0.021
G0 Z0.7

(Outside)
X15.625 Y11.75
Z0.7
Z0.2594
G1 Z-0.1912 F50
Y21.25 F125
G2 X15.75 Y21.375 I0.125 J0
G1 X14.985
G2 X15.11 Y21.25 I0 J-0.125
G1 Y11.75
G2 X14.985 Y11.625 I-0.125 J0
G1 X12
G2 X11.625 Y12 I0 J0.375
G1 Y16.765
G2 X11.75 Y16.89 I0.125 J0
G1 X12.8976
X13.375 Y19.2625
Y20.015
G2 X13.25 Y19.89 I-0.125 J0
G1 X11.75
G2 X11.625 Y20.015 I0 J0.125
G1 Y23
G2 X12 Y23.375 I0.375 J0
G1 X23
G2 X23.375 Y23 I0 J-0.375
G1 Y15.75
G2 X23.25 Y15.625 I-0.125 J0
G1 X21.75
G2 X21.625 Y15.75 I0 J0.125
G1 Y14.9946
X22.079 Y12.0573
G2 X21.7084 Y11.625 I-0.3706 J-0.0573
G1 X20.015
G2 X19.89 Y11.75 I0 J0.125
G1 Y21.25
G2 X20.015 Y21.375 I0.125 J0
G1 X19.25
G2 X19.375 Y21.25 I0 J-0.125
G1 Y11.75
G2 X19.25 Y11.625 I-0.125 J0
G1 X15.75
G2 X15.625 Y11.75 I0 J0.125
G1 Z-0.3825 F50
Y21.25 F125
G2 X15.75 Y21.375 I0.125 J0
G1 X14.985
G2 X15.11 Y21.25 I0 J-0.125
G1 Y11.75
G2 X14.985 Y11.625 I-0.125 J0
G1 X12
G2 X11.625 Y12 I0 J0.375
G1 Y16.765
G2 X11.75 Y16.89 I0.125 J0
G1 X12.8976
X13.375 Y19.2625
Y20.015
G2 X13.25 Y19.89 I-0.125 J0
G1 X11.75
G2 X11.625 Y20.015 I0 J0.125
G1 Y23
G2 X12 Y23.375 I0.375 J0
G1 X23
G2 X23.375 Y23 I0 J-0.375
G1 Y15.75
G2 X23.25 Y15.625 I-0.125 J0
G1 X21.75
G2 X21.625 Y15.75 I0 J0.125
G1 Y14.9946
X22.079 Y12.0573
G2 X21.7084 Y11.625 I-0.3706 J-0.0573
G1 X20.015
G2 X19.89 Y11.75 I0 J0.125
G1 Y21.25
G2 X20.015 Y21.375 I0.125 J0
G1 X19.25
G2 X19.375 Y21.25 I0 J-0.125
G1 Y11.75
G2 X19.25 Y11.625 I-0.125 J0
G1 X15.75
G2 X15.625 Y11.75 I0 J0.125
G1 Z-0.5737 F50
Y21.25 F125
G2 X15.75 Y21.375 I0.125 J0
G1 X14.985
G2 X15.11 Y21.25 I0 J-0.125
G1 Y11.75
G2 X14.985 Y11.625 I-0.125 J0
G1 X12
G2 X11.625 Y12 I0 J0.375
G1 Y16.765
G2 X11.75 Y16.89 I0.125 J0
G1 X12.8976
X13.375 Y19.2625
Y20.015
G2 X13.25 Y19.89 I-0.125 J0
G1 X11.75
G2 X11.625 Y20.015 I0 J0.125
G1 Y23
G2 X12 Y23.375 I0.375 J0
G1 X23
G2 X23.375 Y23 I0 J-0.375
G1 Y15.75
G2 X23.25 Y15.625 I-0.125 J0
G1 X21.75
G2 X21.625 Y15.75 I0 J0.125
G1 Y14.9946
X22.079 Y12.0573
G2 X21.7084 Y11.625 I-0.3706 J-0.0573
G1 X20.015
G2 X19.89 Y11.75 I0 J0.125
G1 Y21.25
G2 X20.015 Y21.375 I0.125 J0
G1 X19.25
G2 X19.375 Y21.25 I0 J-0.125
G1 Y11.75
G2 X19.25 Y11.625 I-0.125 J0
G1 X15.75
G2 X15.625 Y11.75 I0 J0.125
G1 Z-0.625 F50
Y12.229 F125
Z-0.765 F50
Y21.25 F125
G2 X15.75 Y21.375 I0.125 J0
G1 X14.985
G2 X15.11 Y21.25 I0 J-0.125
G1 Y11.75
G2 X14.985 Y11.625 I-0.125 J0
G1 X12
G2 X11.625 Y12 I0 J0.375
G1 Y16.765
G2 X11.75 Y16.89 I0.125 J0
G1 X12.8976
X13.375 Y19.2625
Y19.4172
Z-0.625
Y19.9172
Z-0.765 F50
Y20.015 F125
G2 X13.3279 Y19.9172 I-0.125 J0
G1 Z-0.625
G2 X13.25 Y19.89 I-0.0779 J0.0978
G1 X13.225
Z-0.765 F50
X11.75 F125
G2 X11.625 Y20.015 I0 J0.125
G1 Y23
G2 X12 Y23.375 I0.375 J0
G1 X23
G2 X23.375 Y23 I0 J-0.375
G1 Y16.9219
Z-0.625
Y16.4219
Z-0.765 F50
Y15.75 F125
G2 X23.25 Y15.625 I-0.125 J0
G1 X22.7022
Z-0.625
X22.2022
Z-0.765 F50
X21.75 F125
G2 X21.625 Y15.75 I0 J0.125
G1 Y14.9946
X22.079 Y12.0573
G2 X21.7084 Y11.625 I-0.3706 J-0.0573
G1 X20.015
G2 X19.8916 Y11.7298 I0 J0.125
G1 Z-0.625
G2 X19.89 Y11.75 I0.1234 J0.0202
G1 Y12.2298
Z-0.765 F50
Y21.25 F125
G2 X20.015 Y21.375 I0.125 J0
G1 X19.25
G2 X19.375 Y21.25 I0 J-0.125
G1 Y11.75
G2 X19.25 Y11.625 I-0.125 J0
G1 X15.75
G2 X15.6268 Y11.729 I0 J0.125
G1 Z-0.625
G2 X15.625 Y11.75 I0.1232 J0.021
G0 Z0.7

(Outside)
X3.875 Y11.75
Z0.7
Z0.2594
G1 Z-0.1912 F50
Y21.25 F125
G2 X4 Y21.375 I0.125 J0
G1 X3.235
G2 X3.36 Y21.25 I0 J-0.125
G1 Y11.75
G2 X3.235 Y11.625 I-0.125 J0
G1 X0.25
G2 X-0.125 Y12 I0 J0.375
G1 Y16.765
G2 X0 Y16.89 I0.125 J0
G1 X1.1476
X1.625 Y19.2625
Y20.015
G2 X1.5 Y19.89 I-0.125 J0
G1 X0
G2 X-0.125 Y20.015 I0 J0.125
G1 Y23
G2 X0.25 Y23.375 I0.375 J0
G1 X11.25
G2 X11.625 Y23 I0 J-0.375
G1 Y15.75
G2 X11.5 Y15.625 I-0.125 J0
G1 X10
G2 X9.875 Y15.75 I0 J0.125
G1 Y14.9946
X10.329 Y12.0573
G2 X9.9584 Y11.625 I-0.3706 J-0.0573
G1 X8.265
G2 X8.14 Y11.75 I0 J0.125
G1 Y21.25
G2 X8.265 Y21.375 I0.125 J0
G1 X7.5
G2 X7.625 Y21.25 I0 J-0.125
G1 Y11.75
G2 X7.5 Y11.625 I-0.125 J0
G1 X4
G2 X3.875 Y11.75 I0 J0.125
G1 Z-0.3825 F50
Y21.25 F125
G2 X4 Y21.375 I0.125 J0
G1 X3.235
G2 X3.36 Y21.25 I0 J-0.125
G1 Y11.75
G2 X3.235 Y11.625 I-0.125 J0
G1 X0.25
G2 X-0.125 Y12 I0 J0.375
G1 Y16.765
G2 X0 Y16.89 I0.125 J0
G1 X1.1476
X1.625 Y19.2625
Y20.015
G2 X1.5 Y19.89 I-0.125 J0
G1 X0
G2 X-0.125 Y20.015 I0 J0.125
G1 Y23
G2 X0.25 Y23.375 I0.375 J0
G1 X11.25
G2 X11.625 Y23 I0 J-0.375
G1 Y15.75
G2 X11.5 Y15.625 I-0.125 J0
G1 X10
G2 X9.875 Y15.75 I0 J0.125
G1 Y14.9946
X10.329 Y12.0573
G2 X9.9584 Y11.625 I-0.3706 J-0.0573
G1 X8.265
G2 X8.14 Y11.75 I0 J0.125
G1 Y21.25
G2 X8.265 Y21.375 I0.125 J0
G1 X7.5
G2 X7.625 Y21.25 I0 J-0.125
G1 Y11.75
G2 X7.5 Y11.625 I-0.125 J0
G1 X4
G2 X3.875 Y11.75 I0 J0.125
G1 Z-0.5737 F50
Y21.25 F125
G2 X4 Y21.375 I0.125 J0
G1 X3.235
G2 X3.36 Y21.25 I0 J-0.125
G1 Y11.75
G2 X3.235 Y11.625 I-0.125 J0
G1 X0.25
G2 X-0.125 Y12 I0 J0.375
G1 Y16.765
G2 X0 Y16.89 I0.125 J0
G1 X1.1476
X1.625 Y19.2625
Y20.015
G2 X1.5 Y19.89 I-0.125 J0
G1 X0
G2 X-0.125 Y20.015 I0 J0.125
G1 Y23
G2 X0.25 Y23.375 I0.375 J0
G1 X11.25
G2 X11.625 Y23 I0 J-0.375
G1 Y15.75
G2 X11.5 Y15.625 I-0.125 J0
G1 X10
G2 X9.875 Y15.75 I0 J0.125
G1 Y14.9946
X10.329 Y12.0573
G2 X9.9584 Y11.625 I-0.3706 J-0.0573
G1 X8.265
G2 X8.14 Y11.75 I0 J0.125
G1 Y21.25
G2 X8.265 Y21.375 I0.125 J0
G1 X7.5
G2 X7.625 Y21.25 I0 J-0.125
G1 Y11.75
G2 X7.5 Y11.625 I-0.125 J0
G1 X4
G2 X3.875 Y11.75 I0 J0.125
G1 Z-0.625 F50
Y12.229 F125
Z-0.765 F50
Y21.25 F125
G2 X4 Y21.375 I0.125 J0
G1 X3.235
G2 X3.36 Y21.25 I0 J-0.125
G1 Y11.75
G2 X3.235 Y11.625 I-0.125 J0
G1 X0.25
G2 X-0.125 Y12 I0 J0.375
G1 Y16.765
G2 X0 Y16.89 I0.125 J0
G1 X1.1476
X1.625 Y19.2625
Y19.4172
Z-0.625
Y19.9172
Z-0.765 F50
Y20.015 F125
G2 X1.5779 Y19.9172 I-0.125 J0
G1 Z-0.625
G2 X1.5 Y19.89 I-0.0779 J0.0978
G1 X1.475
Z-0.765 F50
X0 F125
G2 X-0.125 Y20.015 I0 J0.125
G1 Y23
G2 X0.25 Y23.375 I0.375 J0
G1 X11.25
G2 X11.625 Y23 I0 J-0.375
G1 Y16.9219
Z-0.625
Y16.4219
Z-0.765 F50
Y15.75 F125
G2 X11.5 Y15.625 I-0.125 J0
G1 X10.9522
Z-0.625
X10.4522
Z-0.765 F50
X10 F125
G2 X9.875 Y15.75 I0 J0.125
G1 Y14.9946
X10.329 Y12.0573
G2 X9.9584 Y11.625 I-0.3706 J-0.0573
G1 X8.265
G2 X8.1416 Y11.7298 I0 J0.125
G1 Z-0.625
G2 X8.14 Y11.75 I0.1234 J0.0202
G1 Y12.2298
Z-0.765 F50
Y21.25 F125
G2 X8.265 Y21.375 I0.125 J0
G1 X7.5
G2 X7.625 Y21.25 I0 J-0.125
G1 Y11.75
G2 X7.5 Y11.625 I-0.125 J0
G1 X4
G2 X3.8768 Y11.729 I0 J0.125
G1 Z-0.625
G2 X3.875 Y11.75 I0.1232 J0.021
G0 Z0.7
G28 G91 Z0
G90
G28 G91 X0 Y0
G90
M30
%
